X: 23198
T: Lead The Knave
R: reel
M: 4/4
K: Cmajor
AG|:E2 A2 AcBA|GEDE G2 G2|EA A2 cAGE|GAcd e2 a2|
agea aged|cAGA c3 d|efed dcAG|1 EDEG A2 AG:|2 EDEG A3|
a|:agea agea|age^f g2 gg|aged dcA^F|GAcd e2 a2|
agea aged|cAGA cBcd|efed dcAG|1 EDEG A3a:|2 EDEG A2||

